client/public/assets/icons/utility/shopping_bag.svg

<?xml version="1.0"?><svg xmlns="http://www.w3.org/2000/svg" width="52" height="52" viewBox="0 0 52 52"><path d="m64.7 19.1v0.4-0.4z"></path><path fill="#fff" d="m44 19.6c0-2.2-1.8-4-4-4h-0.7c-0.5-6.8-6.2-12.2-13.2-12.2s-12.6 5.4-13.2 12.2h-0.9c-2.2 0-4 1.8-4 4l-2 25c0 2.2 1.8 4 4 4h32c2.2 0 4-1.8 4-4l-2-25z m-17.9-10.2c3.7 0 6.7 2.7 7.2 6.2h-14.4c0.6-3.5 3.6-6.2 7.2-6.2z m5.7 18.2h-11.6c-1.7 0-3-1.4-3-3s1.4-3 3-3h11.7c1.7 0 3 1.4 3 3s-1.4 3-3.1 3z"></path></svg>

<?xml version="1.0" encoding="utf-8"?>
<!-- Generator: Adobe Illustrator 21.0.2, SVG Export Plug-In . SVG Version: 6.00 Build 0)  -->
<svg version="1.1" id="Layer_1" xmlns="http://www.w3.org/2000/svg" xmlns:xlink="http://www.w3.org/1999/xlink" x="0px" y="0px"
	 width="52px" height="52px" viewBox="0 0 52 52" enable-background="new 0 0 52 52" xml:space="preserve">
<path d="M64.7,19.1v0.4V19.1z"/>
<path fill="#FFFFFF" d="M44,19.6c0-2.2-1.8-4-4-4h-0.7C38.8,8.8,33.1,3.4,26.1,3.4S13.5,8.8,12.9,15.6H12c-2.2,0-4,1.8-4,4l-2,25
	c0,2.2,1.8,4,4,4h32c2.2,0,4-1.8,4-4L44,19.6z M26.1,9.4c3.7,0,6.7,2.7,7.2,6.2H18.9C19.5,12.1,22.5,9.4,26.1,9.4z M31.8,27.6H20.2
	c-1.7,0-3-1.4-3-3s1.4-3,3-3h11.7c1.7,0,3,1.4,3,3S33.5,27.6,31.8,27.6z"/>
</svg>
